assets/icons/no-package/flatpak.svg

<?xml version="1.0" encoding="UTF-8" standalone="no"?>
<svg
   viewBox="0 0 24 24"
   height="24"
   id="svg7384"
   version="1.1"
   width="24"
   sodipodi:docname="flatpak.svg"
   inkscape:version="1.2 (1:1.2.1+202207142221+cd75a1ee6d)"
   xmlns:inkscape="http://www.inkscape.org/namespaces/inkscape"
   xmlns:sodipodi="http://sodipodi.sourceforge.net/DTD/sodipodi-0.dtd"
   xmlns="http://www.w3.org/2000/svg"
   xmlns:svg="http://www.w3.org/2000/svg"
   xmlns:rdf="http://www.w3.org/1999/02/22-rdf-syntax-ns#"
   xmlns:cc="http://creativecommons.org/ns#"
   xmlns:dc="http://purl.org/dc/elements/1.1/">
  <sodipodi:namedview
     id="namedview25"
     pagecolor="#ffffff"
     bordercolor="#666666"
     borderopacity="1.0"
     inkscape:pageshadow="2"
     inkscape:pageopacity="0.0"
     inkscape:pagecheckerboard="0"
     showgrid="false"
     inkscape:zoom="22.627417"
     inkscape:cx="5.5684659"
     inkscape:cy="14.164233"
     inkscape:window-width="1920"
     inkscape:window-height="1016"
     inkscape:window-x="0"
     inkscape:window-y="0"
     inkscape:window-maximized="1"
     inkscape:current-layer="svg7384"
     inkscape:snap-page="true"
     inkscape:snap-global="true"
     inkscape:showpageshadow="2"
     inkscape:deskcolor="#d1d1d1">
    <inkscape:grid
       type="xygrid"
       id="grid829" />
    <inkscape:grid
       type="xygrid"
       id="grid831"
       dotted="true"
       spacingx="0.5"
       spacingy="0.5"
       empspacing="10" />
  </sodipodi:namedview>
  <metadata
     id="metadata20854">
    <rdf:RDF>
      <cc:Work
         rdf:about="">
        <dc:format>image/svg+xml</dc:format>
        <dc:type
           rdf:resource="http://purl.org/dc/dcmitype/StillImage" />
      </cc:Work>
    </rdf:RDF>
  </metadata>
  <defs
     id="defs7386">
    <linearGradient
       id="linearGradient5606"
       inkscape:swatch="solid">
      <stop
         id="stop5608"
         offset="0"
         style="stop-color:#000000;stop-opacity:1;" />
    </linearGradient>
    <linearGradient
       id="linearGradient4526"
       inkscape:swatch="solid">
      <stop
         id="stop4528"
         offset="0"
         style="stop-color:#ffffff;stop-opacity:1;" />
    </linearGradient>
    <linearGradient
       id="linearGradient3600-4"
       inkscape:swatch="gradient">
      <stop
         id="stop3602-7"
         offset="0"
         style="stop-color:#f4f4f4;stop-opacity:1" />
      <stop
         id="stop3604-6"
         offset="1"
         style="stop-color:#dbdbdb;stop-opacity:1" />
    </linearGradient>
  </defs>
  <path
     id="path866"
     style="color:#000000;fill:#808080;fill-opacity:1"
     d="M 3.3632812 2.65625 L 2.6367188 3.34375 L 4.0449219 4.8339844 C 4.0158837 5.0395166 4 5.2595158 4 5.5019531 L 4 18.501953 C 4 19.043619 4.0635993 19.485874 4.2304688 19.861328 C 4.3973379 20.236785 4.6879024 20.529497 5.0273438 20.699219 C 5.7062264 21.038658 6.500004 21.001953 7.5 21.001953 L 15.5 21.001953 C 16.499996 21.001953 17.293774 21.03866 17.972656 20.699219 C 18.198692 20.5862 18.401904 20.41724 18.5625 20.207031 L 19.636719 21.34375 L 20.363281 20.65625 L 18.957031 19.167969 L 18.957031 19.166016 L 18 18.154297 L 15.164062 15.150391 L 11.654297 11.435547 L 9.4121094 9.0605469 L 8.8789062 8.4960938 L 5.1464844 4.5449219 L 4.8515625 4.2324219 L 4.4394531 3.7949219 L 3.3632812 2.65625 z M 16.212891 3 C 15.987242 2.9981376 15.75 3.0019531 15.5 3.0019531 L 7.5 3.0019531 C 7.2500009 3.0019531 7.0127571 3.0000931 6.7871094 3.0019531 C 6.2105288 3.0067144 5.7085012 3.0385108 5.2578125 3.2050781 L 6.0644531 4.0585938 C 6.4306127 4.0156028 6.9126135 4.0019531 7.5 4.0019531 L 15.5 4.0019531 C 16.499996 4.0019531 17.20623 4.0386615 17.527344 4.1992188 C 17.687901 4.2794975 17.772339 4.3617863 17.855469 4.5488281 C 17.938599 4.7358699 18 5.0436217 18 5.5019531 L 18 16.697266 L 19 17.755859 L 19 5.5019531 C 19 4.9602888 18.9364 4.5180339 18.769531 4.1425781 C 18.602661 3.7671223 18.312099 3.4744081 17.972656 3.3046875 C 17.463495 3.0501066 16.889834 3.0055872 16.212891 3 z M 5 5.8457031 L 7.9667969 8.9863281 L 7 9.5058594 L 7 9.7285156 L 7 14.701172 L 11.5 17.117188 L 14.25 15.640625 L 17.855469 19.457031 C 17.772589 19.642841 17.687401 19.72466 17.527344 19.804688 C 17.20623 19.965242 16.499996 20.001953 15.5 20.001953 L 7.5 20.001953 C 6.500004 20.001953 5.7937699 19.965241 5.4726562 19.804688 C 5.3120997 19.724408 5.2276614 19.64212 5.1445312 19.455078 C 5.0614015 19.268036 5 18.960286 5 18.501953 L 5 5.8457031 z M 11.5 7.0878906 L 9.7910156 8.0058594 L 10.324219 8.5703125 L 11.5 7.9394531 L 14.832031 9.7285156 L 12.566406 10.945312 L 16 14.580078 L 16 9.5058594 L 11.5 7.0878906 z M 8.4980469 9.5507812 L 9.1796875 10.271484 L 8.1679688 9.7285156 L 8.4980469 9.5507812 z " />
</svg>

<svg height="24" width="24" xmlns="http://www.w3.org/2000/svg"><path style="color:#000;fill:gray;fill-opacity:1" d="m3.363 2.656-.726.688 1.408 1.49A4.75 4.75 0 0 0 4 5.502v13c0 .542.064.984.23 1.36.167.375.458.667.797.837.68.34 1.473.303 2.473.303h8c1 0 1.794.037 2.473-.303a1.71 1.71 0 0 0 .59-.492l1.074 1.137.726-.688-1.406-1.488v-.002L18 18.154l-2.836-3.004-3.51-3.714L9.412 9.06l-.533-.565-3.733-3.951-.294-.313-.413-.437-1.076-1.139zM16.213 3c-.226-.002-.463.002-.713.002h-8c-.25 0-.487-.002-.713 0-.576.005-1.078.037-1.53.203l.807.854c.367-.043.849-.057 1.436-.057h8c1 0 1.706.037 2.027.197.16.08.245.163.328.35.084.187.145.495.145.953v11.195l1 1.059V5.502c0-.542-.064-.984-.23-1.36a1.72 1.72 0 0 0-.797-.837c-.51-.255-1.083-.3-1.76-.305zM5 5.846l2.967 3.14-.967.52V14.7l4.5 2.416 2.75-1.476 3.605 3.816a.615.615 0 0 1-.328.348c-.32.16-1.027.197-2.027.197h-8c-1 0-1.706-.037-2.027-.197a.615.615 0 0 1-.328-.35C5.06 19.268 5 18.96 5 18.502V5.846zm6.5 1.242-1.709.918.533.564 1.176-.63 3.332 1.789-2.266 1.216L16 14.58V9.506l-4.5-2.418zM8.498 9.55l.682.72-1.012-.542.33-.178z"/></svg>
